static/navigator.svg

<svg fill="none" height="122" viewBox="0 0 121 122" width="121" xmlns="http://www.w3.org/2000/svg"><path d="m0 1h120v120h-120z"/><path clip-rule="evenodd" d="m20.0099 81.0099-20.00989822-20.0099 20.00989822-20.0099v15.0074l-5.0024 5.0025 5.0024 5.0025zm20.0116-60.0311 20.0099-20.009883 20.0099 20.009883h-15.0074l-5.0025-5.0024-5.0025 5.0024zm-10.004 34.0196v-24.0119h24.012zm6.002 6 24.0119-24.0119 24.012 24.0119-24.012 24.012zm-6.002 30.0164h24.012l-24.012-24.0119zm60.0294-24.0119v24.0119h-24.012zm0-36.0164h-24.0119l24.0119 24.0119zm-30.0155 90.0425-20.0099-20.01h15.0074l5.0025 5.002 5.0025-5.002h15.0074zm60.0306-60.03-20.009 20.01v-15.0075l5.002-5.0025-5.002-5.0025v-15.0074z" fill="#099821" fill-rule="evenodd"/></svg>

<svg width="121" height="122" viewBox="0 0 121 122" fill="none" xmlns="http://www.w3.org/2000/svg">
<rect width="120" height="120" transform="translate(0 1)" />
<path fill-rule="evenodd" clip-rule="evenodd" d="M20.0099 81.0099L1.77956e-06 61L20.0099 40.9901L20.0099 55.9975L15.0075 61L20.0099 66.0025L20.0099 81.0099ZM40.0215 20.9788L60.0314 0.968917L80.0413 20.9788L65.0339 20.9788L60.0314 15.9764L55.0289 20.9788L40.0215 20.9788ZM30.0175 54.9984L30.0175 30.9865L54.0295 30.9865L30.0175 54.9984ZM36.0195 60.9984L60.0314 36.9865L84.0434 60.9984L60.0314 85.0104L36.0195 60.9984ZM30.0175 91.0148L54.0295 91.0148L30.0175 67.0029L30.0175 91.0148ZM90.0469 67.0029L90.0469 91.0148L66.0349 91.0148L90.0469 67.0029ZM90.0469 30.9865L66.035 30.9865L90.0469 54.9984L90.0469 30.9865ZM60.0314 121.029L40.0215 101.019L55.0289 101.019L60.0314 106.021L65.0339 101.019L80.0413 101.019L60.0314 121.029ZM120.062 60.999L100.053 81.009V66.0015L105.055 60.999L100.053 55.9965L100.053 40.9891L120.062 60.999Z" fill="#099821"/>
</svg>
